X:1
T:Country Club
T:By SCOTT JOPLIN. Composer of “Maple Leaf Rag”, “Sugar Cane Rag” and “Pineapple Rag.”
T:COUNTRY CLUB.
T:Ragtime Two Step
T:NOTE: Do not play this piece fast. It is never right to play Ragtime fast. Composer.
T:Public Domain
T:Public Domain
T:Public Domain
T:Public Domain
C:Scott Joplin
Z:Public Domain
%%score { ( 1 4 ) | ( 2 3 ) }
L:1/8
Q:1/4=80
M:2/4
K:C
V:1 treble nm="PIANO."
V:4 treble 
V:2 bass 
V:3 bass 
V:1
!mf!"^Slow March Time."{/^F} G2{/F} G2 | cA G^D/E/ | FE/F/ (E_E) | D z !>![GBdg] z |: %4
!mf!{/^f} [ceg]2{/f} [ceg]2 | [cc'][Aa] [Gceg]2 | f/e'd'/ (c'/d/e/f/) | e/a/a/a/- (a/g/d/g/) | %8
 [ceg]2{/^f} [ceg]2 | [cc'][Aa] [Gceg](([Aa]/[^A^a]/)) | !>![B^d^fb]2 !>![Bdfb]2 | %11
 (!>![Begb]/e/g) [Bfg]2 |!mf!{/^f} [ceg]2{/f} [ceg]2 | [cc'][Aa] [Gceg]2 | %14
 ([^Gde^g]>[Aa]) [Bdgb][Gdeg] | [Acea]2- [Acea][Gceg] | f/e'd'/ (c'/d/e/f/) | [ce]2 [Aa][Gg] | %18
 [^Fc]2 [=FBd]2 |1 ce/c/ dg :|2!<(! [Ec](g/c'/ d'!<)!e') |:!f! ([d'f']>[c'e']) [bd']/[gb][ac']/ | %22
 [gb][fa]/[df]/- [df]/[^ce]/[df] | ([^d^f]/[eg])[df]/ ([eg]/[=d=f]/[ce]) | ((([Ac^d]2 [Gce]2))) | %25
!mf! ([^ce]/[df])[ce]/ ([df]/[=ce]/[Bd]) | ((([E^A^c]2 [FBd])))[df] | %27
 ([^d^f]/[eg])[df]/!<(! [eg][=fa]!<)! | [eg]!<(!(c'd'e')!<)! | %29
!f! ([d'f']>[c'e']) [bd']/[gb][ac']/ | [gb][fa]/[df]/- [df]/[^ce]/[df] | (^f/g=c'/) [egc'][e^gc'] | %32
 [fac']2- [fac']A | (f>e d)A |1 (f>e d)(A/_A/) | (G/^G/A/^A/) (B/d/=A/B/) | [Ec](g/c'/ d'e') :|2 %37
 (d>e f)f |!<(! (!>!^f/^e/f) (!>!f/e/!<)!f) |!>(! [Bdg]2- [Bdg][B=fg]!>)! || %40
!mf!{/^f} [ceg]2{/f} [ceg]2 | [cc'][Aa] [Gceg]2 | f/e'd'/ (c'/d/e/f/) | e/a/a/a/- (a/g/d/g/) | %44
 [ceg]2{/^f} [ceg]2 | [cc'][Aa] [Gceg]([Aa]/[^A^a]/) | [B^d^fb]2 [Bdfb]2 | (!>![Begb]/e/g) [Bfg]2 | %48
!mf!{/^f} [ceg]2{/f} [ceg]2 | [cc'][Aa] [Gceg]2 | ([^Gde^g]>[Aa]) [Bdgb][Gdeg] | %51
 [Acea]2- [Acea][Gceg] | f/e'd'/ (c'/d/e/f/) | [ce]2 [Aa][Gg] | [^Fc]2 [=FBd]2 | [Ec]2- [Ec] || %56
[K:F][M:2/4]!p! C |:!p! (F/E/F/G/) A/dA/ | ([Ac]/[^G=B]/[Ac]) [Af]2 | %59
 ([GB]>[^FA]) ([GB]/[Ac][GB]/) | [GB]/[FA]F/ (DC) | (F/E/F/G/) A/dA/ | %62
 ([Ac]/[^G=B]/[Ac])!<(! f(d/!<)!^d/) |!mf! (e<g) (d<g) | [_Bg]2- [Bg]!>(!(A/G/)!>)! | %65
!p! (F/E/F/G/) A/dA/ | ([Ac]/[^G=B]/[Ac]) [Af]2 |!<(! !tenuto![FA]2 !tenuto![FA]2!<)! | %68
!mf! [FB]2- [FB] z | (d'/c'/=b/a/ ^g) z | (d'/c'/=b/a/ ^g)[F^G] | .[FA] z [DE_B]/[CEA]/[_B,EG] |1 %72
 [A,F]2- [A,F][Cc] :|2 [A,F]2- [A,F]c/d/ |: ([ce]>[df]) ([^d^f]<[eg]) | %75
 ([ce]>[df]) ([^d^f]/[eg]/c') |{/=b} (c'/a/f/a/ f/c/A/F/) | (A,/C/F/A/ c/^c/d/^d/) | %78
 ([ce]>[df]) ([^d^f]<[eg]) | ([ce]>[df]) ([^d^f]/[eg]/c') |{/=b} (c'/a/f/a/ f/c/A/F/) | %81
 (A,/C/F/A/ C/F/A/c/) | (^c>d) (e<c) | (d/^c/d/^G/) (A/a/f/d/) | (^c>d) (e<c) | (d/^c/d) [FAd]2 | %86
 (d>^c) (d/e/d) | (d/c)a/ (ba) | (a/g/f/=B/) (d/c/G/A/) |1 F2- (F/c/[cd]/[c^d]/) :|2 %90
 F2 !>![FAcf] z!fine! || %91
V:2
{/^F,} G,2{/F,} G,2 | CA, G,^D,/E,/ | F,E,/F,/ (E,_E,) | D, z !>![G,,G,] z |: %4
 [C,,C,][G,CE] [E,,E,][G,CE] | [A,,A,][F,,F,] [E,,E,][C,C]/[_B,,_B,]/ | A,[A,CF] _A,[A,CF] | %7
 G,[G,CE] G,[G,B,F] | [C,,C,][G,CE] [E,,E,][G,CE] | [A,,A,][F,,F,] [E,,E,][C,,C,] | %10
 (!>![B,,,B,,]!>![A,,A,] !>![G,,G,]!>![^F,,^F,]) | !>![E,,E,][G,B,E] (D,/B,,/G,,) | %12
 [C,,C,][G,CE] [E,,E,][G,CE] | [A,,A,][F,,F,] ([E,,E,][C,C]) | B,[^G,DE] E,[B,DE] | %15
 A,[A,CE] [C,C][_B,,_B,] | A,[A,CF] _A,[A,CF] | G,[G,CE] [F,F][E,E] | ((A,,A,)) (G,,G,) |1 %19
 [C,G,]2 [G,,G,]2 :|2 [C,G,][K:treble](e fg) |:[K:bass] G,,[G,B,F] B,,[G,B,F] | %22
 D,[G,B,F] G,,[G,B,F] | C,[G,CE] C,[G,CE] | (^F,/G,/A,/F,/ G,E,) | D,[G,B,F] G,,[G,B,F] | %26
 (G,,/^D,/E,/G,/ G,,) z | C,[G,CE] [G,CE][A,CF] | [G,CE][K:treble] (efg) | %29
[K:bass] G,,[G,B,F] B,,[G,B,F] | D,[G,B,F] G,,[G,B,F] | C,[G,CE] C,[_B,CE] | F,[A,CF] [A,CF]A, | %33
 (D>E F)A, |1 (D>E F)(A,/_A,/) | G,[B,F] G,,[G,B,F] | [C,C][K:treble] (efg) :|2 %37
[K:bass] (F>E D)[^G,,^G,] | !tenuto![A,,A,]2 !tenuto![_A,,_A,]2 | %39
 ([G,,G,][=F,,=F,] [E,,E,][D,,D,]) || [C,,C,][G,CE] [E,,E,][G,CE] | %41
 [A,,A,][F,,F,] [E,,E,][C,C]/[_B,,_B,]/ | A,[A,CF] _A,[A,CF] | G,[G,CE] G,[G,B,F] | %44
 [C,,C,][G,CE] [E,,E,][G,CE] | [A,,A,][F,,F,] [E,,E,][C,,C,] | %46
 (!>![B,,,B,,]!>![A,,A,] !>![G,,G,]!>![^F,,^F,]) | !>![E,,E,][G,B,E] (D,/B,,/G,,) | %48
 [C,,C,][G,CE] [E,,E,][G,CE] | [A,,A,][F,,F,] ([E,,E,][C,C]) | B,[^G,DE] E,[B,DE] | %51
 A,[A,CE] [C,C][_B,,_B,] | A,[A,CF] _A,[A,CF] | G,[G,CE] [F,F][E,E] | (A,,A,) (G,,G,) | G,2- G, || %56
[K:F][M:2/4] z |: F,[A,C] C,[A,C] | x2 D,[A,D] | _D,[B,_D] C,[B,C] | x2 (^G,A,) | F,[A,C] C,[A,C] | %62
 F,[A,C] (A,,_A,,) | G,,[G,CE] G,,[G,=B,F] | z ((([_B,_DF][B,CE]))) z | F,[A,C] C,[A,C] | %66
 x2 D,[A,D] | (C,F,E,_E,) | (D,F,/B,/ D) z |[K:treble] ([^G=B][Bd][df]) z | ([^G=B][Bd][df])=B, | %71
 .C z[K:bass] !tenuto!C,2 |1 !>!F,!>!C, !>!D,!>!E, :|2 F,C,F,, z |: G,[B,CE] C,[B,CE] | %75
 G,[B,CE] C,[B,CE] | [A,CF] z z2 | z2 [^F,A,C^D]2 | G,[B,CE] C,[B,CE] | G,[B,CE] C,[B,CE] | %80
 [A,CF] z z2 | z2 [F,A,]2 | E,[G,A,^C] A,,[G,A,C] | D,[F,A,D][F,A,D] z | E,[G,A,^C] A,,[G,A,C] | %85
 D,[F,A,D] C,[F,A,D] | B,,[G,B,D] =B,,[^G,DF] | C,[A,CF] D,[A,C^F] | %88
 [G,=B,D=F][^G,B,DF] [A,CF][C,_B,] |1 A,2- A, F,/^F,/ :|2 F,C,!>!F,, z || %91
V:3
 x4 | x4 | x4 | x4 |: x4 | x4 | [A,,A,]2 [_A,,_A,]2 | [G,,G,]2 [G,,G,]2 | x4 | x4 | x4 | x4 | x4 | %13
 x4 | [B,,B,]2 [E,,E,]2 | [A,,A,]2 x2 | [A,,A,]2 [_A,,_A,]2 | [G,,G,]2 x2 | A,,2 G,,2 |1 x4 :|2 %20
 x[K:treble] x3 |:[K:bass] x4 | x4 | x4 | x4 | x4 | G,,2 G,, x | x4 | x[K:treble] x3 |[K:bass] x4 | %30
 x4 | x4 | x4 | x4 |1 x4 | x4 | x[K:treble] x3 :|2[K:bass] x4 | x4 | x4 || x4 | x4 | %42
 [A,,A,]2 [_A,,_A,]2 | [G,,G,]2 [G,,G,]2 | x4 | x4 | x4 | x4 | x4 | x4 | [B,,B,]2 [E,,E,]2 | %51
 [A,,A,]2 x2 | [A,,A,]2 [_A,,_A,]2 | [G,,G,]2 x2 | A,,2 G,,2 | C,G,,C,, ||[K:F][M:2/4] x |: x4 | %58
 F,[A,C] D,2 | (_D,2 C,2) | F,[A,C] F,2 | x4 | x4 | x4 | C,2- C, x | x4 | F,[A,C] D,2 | x4 | %68
 D,2- D, x |[K:treble] x4 | x4 | x2[K:bass] x2 |1 x4 :|2 x4 |: x4 | x4 | x4 | x4 | x4 | x4 | x4 | %81
 x4 | x4 | x4 | x4 | D,2 C,2 | B,,2 =B,,2 | x4 | x4 |1 F,C,F,, (F,/^F,/) :|2 A,2 x x || %91
V:4
 x4 | x4 | x4 | x4 |: x4 | x4 | x4 | c>[Bf]- [Bf]B | x4 | x4 | x4 | x4 | x4 | x4 | x4 | x4 | x4 | %17
 x4 | x4 |1 E2 [FB]2 :|2 x4 |: x4 | x4 | x4 | x4 | x4 | x4 | x4 | x4 | x4 | x4 | (^d<e) x2 | x4 | %33
 A2- AA |1 A2- AA/_A/ | x4 | x4 :|2 A2- A[Bd] | !tenuto![cd]2 !tenuto![cd]2 | x4 || x4 | x4 | x4 | %43
 c>[Bf]- [Bf]B | x4 | x4 | x4 | x4 | x4 | x4 | x4 | x4 | x4 | x4 | x4 | x3 ||[K:F][M:2/4] x |: x4 | %58
 x4 | x4 | x4 | x4 | x2 [Fc]2 | [Gc]2 =B2 | x4 | x4 | x4 | x4 | x4 | x4 | x4 | x4 |1 x4 :|2 x4 |: %74
 x4 | x4 | x4 | x4 | x4 | x4 | x4 | x4 | (A2 G2) | F2- F z | (A2 G2) | F2 x2 | (G2 ^G2) | %87
 A2 [c^f]2 | [=B=f]>B x E |1 x4 :|2 x4 || %91

